X:72
T:Strella do Dia (Cantiga 100)
C:Las Cantigas de Santa Maria
C:Alphonso X, El Sabio (1221-1284)
R:Cantigas
N:Remarks :     %Tune infos
Q:1/4=120     %Tempo
M:4/4     %Meter
L:1/8     %
K:C
d2 c_B A3 B |c2 d2 G2 G2 |d2 c_B A2 GA |_BA GF G2 G2 :|
c2 d2 e3 d |fe de c2 c2 |c2 d2 e3 d |fe dc d2 d2 |e2 f2 g3 e |fg fd e2 e2 |e2 e2 e3 d |fe de c2 c2 |]





